lib/logo_tmp/nrk-logo-nrk-super-with-bg.svg

<svg width="85" height="28" viewBox="0 0 85 28" fill="none" xmlns="http://www.w3.org/2000/svg">
<rect width="84.6667" height="28" rx="14" fill="#00B3C7"/>
<path d="M11 21.0001V7.00141H15.5934V21.0001H11ZM21.8428 9.22938L24.4844 21.0001H19.4574L16.3031 7.00141H19.1225C19.7691 6.99302 20.3964 7.22093 20.8869 7.64226C21.3782 8.04592 21.7158 8.60629 21.8428 9.22938ZM25.1744 21.0001V7.00141H29.7678V21.0001H25.1744ZM33.2372 12.3249C32.7422 12.3298 32.2552 12.2002 31.828 11.9503C31.4064 11.7066 31.0563 11.3564 30.8127 10.9348C30.5624 10.5075 30.4329 10.0204 30.4378 9.52518C30.4321 9.03301 30.5618 8.54875 30.8127 8.12531C31.0589 7.7083 31.4086 7.36192 31.828 7.11975C32.2553 6.87006 32.7423 6.74058 33.2372 6.74509C33.7292 6.73979 34.2133 6.86939 34.6369 7.11975C35.0521 7.36404 35.3981 7.71013 35.6424 8.12531C35.893 8.54887 36.0226 9.03305 36.0172 9.52518C36.0218 10.0203 35.8923 10.5074 35.6424 10.9348C35.4007 11.3546 35.0542 11.7045 34.6369 11.9503C34.2133 12.2011 33.7289 12.3307 33.2366 12.3249H33.2372ZM36.7269 21.0001V7.00141H41.3207V21.0001H36.7269ZM47.136 14.6514C47.1489 14.665 47.2475 14.826 47.4317 15.1345C47.6159 15.4429 47.8558 15.8373 48.1513 16.3175C48.447 16.7975 48.759 17.3068 49.0874 17.8455C49.4157 18.3842 49.7247 18.8936 50.0143 19.3735C50.3028 19.8535 50.6313 20.3957 51 21.0001H45.9531C45.6375 20.4875 45.3515 20.0242 45.0952 19.6101C44.8389 19.1961 44.5665 18.7492 44.2778 18.2694C43.9884 17.7901 43.7024 17.3234 43.4196 16.8695C43.1368 16.4156 42.8938 16.018 42.6905 15.6767C42.4863 15.3352 42.3449 15.1051 42.2663 14.9866C42.0713 14.6925 41.9559 14.3528 41.9315 14.0008C41.951 13.6629 42.0597 13.3363 42.2466 13.0541C42.3254 12.9227 42.47 12.6893 42.6803 12.3541C42.8906 12.0189 43.137 11.6214 43.4196 11.1613C43.7021 10.7013 43.9882 10.2313 44.2778 9.75158C44.5674 9.27181 44.8398 8.82158 45.0952 8.40097C45.3519 7.98079 45.6379 7.51416 45.9531 7.00109H51L47.0962 13.3696C46.9754 13.5586 46.9073 13.7765 46.8991 14.0008C46.9121 14.2362 46.9942 14.4625 47.1353 14.6514H47.136Z" fill="white"/>
<path d="M67.3448 4.46929C68.5761 4.99154 69.6952 5.74639 70.6406 6.6925C71.5868 7.63798 72.3416 8.75716 72.8638 9.98865C73.403 11.2601 73.6762 12.6284 73.6664 14.0094C73.675 15.3843 73.4019 16.7463 72.8638 18.0115C72.3415 19.2429 71.5866 20.3621 70.6406 21.3077C69.6951 22.2537 68.5761 23.0085 67.3448 23.5309C66.0732 24.0698 64.7047 24.3429 63.3237 24.3332C61.9426 24.343 60.5741 24.07 59.3026 23.5309C58.0732 23.01 56.957 22.2549 56.0161 21.3077C55.0751 20.36 54.3238 19.2412 53.8029 18.0115C53.2647 16.7464 52.9915 15.3843 53.0003 14.0094C52.9903 12.6284 53.2635 11.26 53.8029 9.98865C54.3237 8.75885 55.0749 7.64003 56.0161 6.6925C56.9569 5.74516 58.0732 4.99005 59.3026 4.46929C60.5741 3.93009 61.9426 3.65705 63.3237 3.66701C64.7047 3.65717 66.0732 3.93021 67.3448 4.46929ZM66.5715 21.646C67.5598 21.232 68.4589 20.6313 69.2197 19.8768C69.9804 19.1229 70.5848 18.2262 70.9982 17.2382C71.4271 16.2162 71.6441 15.1178 71.6362 14.0094C71.644 12.9012 71.427 11.8029 70.9982 10.7809C70.5832 9.79098 69.9791 8.89145 69.2197 8.13275C68.4596 7.37253 67.5606 6.76535 66.5715 6.3442C65.5446 5.90839 64.4392 5.68807 63.3237 5.69689C62.2145 5.68927 61.1157 5.9096 60.0952 6.3442C59.1059 6.76527 58.2066 7.37245 57.4464 8.13275C56.6862 8.89283 56.0791 9.79185 55.6581 10.7809C55.2235 11.8014 55.0031 12.9003 55.0108 14.0094C55.003 15.1187 55.2233 16.2177 55.6581 17.2382C56.0775 18.2253 56.6849 19.1215 57.4464 19.8768C58.2073 20.6314 59.1067 21.2321 60.0952 21.646C61.1172 22.0746 62.2155 22.2917 63.3237 22.2839C64.4383 22.2929 65.5431 22.0759 66.5715 21.646ZM58.8093 15.1697C58.6633 15.026 58.5479 14.8544 58.4699 14.665C58.3919 14.4757 58.3529 14.2725 58.3553 14.0677C58.3503 13.8569 58.3879 13.6471 58.466 13.4511C58.544 13.2552 58.6607 13.0769 58.8093 12.9271C58.9523 12.777 59.125 12.6582 59.3163 12.5783C59.5077 12.4985 59.7135 12.4592 59.9209 12.4632C60.134 12.4591 60.3457 12.4981 60.5434 12.5778C60.741 12.6575 60.9205 12.7763 61.0711 12.9271C61.2248 13.0741 61.3463 13.2513 61.4279 13.4477C61.5095 13.644 61.5494 13.8552 61.5451 14.0677C61.5467 14.2742 61.5054 14.4788 61.4238 14.6685C61.3422 14.8582 61.2221 15.0288 61.0711 15.1697C60.9205 15.3205 60.741 15.4393 60.5434 15.519C60.3457 15.5988 60.134 15.6377 59.9209 15.6336C59.7135 15.6376 59.5077 15.5984 59.3163 15.5185C59.125 15.4386 58.9523 15.3198 58.8093 15.1697ZM66.6678 11.7865C66.6807 11.7476 66.7068 11.7476 66.7455 11.7865L67.2094 13.0431C67.2175 13.0776 67.2375 13.108 67.2657 13.1293C67.294 13.1505 67.3288 13.1612 67.3641 13.1595L68.7364 13.1978C68.7621 13.1978 68.775 13.2078 68.775 13.2271C68.7712 13.2538 68.7574 13.2779 68.7364 13.2948L67.7504 14.1454C67.7309 14.151 67.7127 14.1606 67.6971 14.1735C67.6814 14.1865 67.6687 14.2026 67.6596 14.2208C67.6505 14.239 67.6453 14.2588 67.6443 14.2791C67.6433 14.2994 67.6465 14.3197 67.6538 14.3387L68.0021 15.5953C68.0021 15.6598 67.9824 15.692 67.9438 15.692L66.8031 14.938C66.7282 14.9115 66.6464 14.9115 66.5715 14.938L65.4886 15.692C65.437 15.692 65.4178 15.6598 65.4309 15.5953L65.7789 14.3387C65.782 14.3007 65.7747 14.2626 65.7576 14.2285C65.7406 14.1944 65.7145 14.1657 65.6822 14.1454L64.6579 13.2948C64.6462 13.274 64.6396 13.2509 64.6386 13.2271C64.6386 13.2078 64.6447 13.1978 64.6579 13.1978L66.0302 13.1595C66.0682 13.1634 66.1064 13.1539 66.1381 13.1327C66.1699 13.1114 66.1933 13.0798 66.2042 13.0431L66.6678 11.7865Z" fill="white"/>
</svg>

<svg xmlns="http://www.w3.org/2000/svg" viewBox="0 0 85 28"><rect width="84.667" height="28" fill="#00B3C7" rx="14"/><path fill="#fff" d="M11 21V7.001h4.593v14H11ZM21.843 9.23 24.484 21h-5.027L16.303 7.001h2.82a2.655 2.655 0 0 1 1.764.641c.491.404.829.964.956 1.587ZM25.174 21V7.001h4.594v14h-4.594Zm8.063-8.675a2.778 2.778 0 0 1-2.425-1.39 2.735 2.735 0 0 1-.374-1.41 2.685 2.685 0 0 1 .375-1.4 2.812 2.812 0 0 1 3.824-1.005c.415.244.761.59 1.005 1.005.251.424.38.908.375 1.4.005.495-.125.982-.375 1.41a2.8 2.8 0 0 1-1.005 1.015c-.424.251-.908.38-1.4.375ZM36.727 21V7.001h4.594v14h-4.594Zm10.409-6.349c.013.014.111.175.296.483.184.309.424.703.72 1.183a384.573 384.573 0 0 1 1.862 3.056c.289.48.617 1.023.986 1.627h-5.047l-.858-1.39c-.256-.414-.529-.86-.817-1.34-.29-.48-.576-.947-.858-1.4a71.148 71.148 0 0 1-.73-1.193 21.119 21.119 0 0 0-.424-.69 2.04 2.04 0 0 1-.334-.986c.019-.338.128-.665.315-.947.078-.131.223-.365.433-.7a216.689 216.689 0 0 0 1.597-2.603l.818-1.35.858-1.4H51l-3.904 6.369c-.12.189-.189.407-.197.63.013.236.095.463.236.651h.001ZM67.345 4.47a10.4 10.4 0 0 1 3.296 2.223 10.398 10.398 0 0 1 2.223 3.296c.539 1.271.812 2.64.802 4.02a10.065 10.065 0 0 1-.802 4.003 10.406 10.406 0 0 1-5.52 5.519c-1.27.539-2.64.812-4.02.802-1.381.01-2.75-.263-4.021-.802a10.292 10.292 0 0 1-3.287-2.223 10.48 10.48 0 0 1-2.213-3.296A10.059 10.059 0 0 1 53 14.009c-.01-1.38.264-2.749.803-4.02a10.471 10.471 0 0 1 2.213-3.297 10.286 10.286 0 0 1 3.287-2.223c1.271-.539 2.64-.812 4.02-.802 1.382-.01 2.75.263 4.022.802Zm-.773 17.176a8.333 8.333 0 0 0 2.648-1.77 8.193 8.193 0 0 0 2.416-5.867 8.195 8.195 0 0 0-.638-3.228 8.255 8.255 0 0 0-1.778-2.648 8.396 8.396 0 0 0-2.648-1.789 8.148 8.148 0 0 0-3.248-.647 8.098 8.098 0 0 0-3.229.647 8.395 8.395 0 0 0-4.437 4.437 8.096 8.096 0 0 0-.647 3.228 8.092 8.092 0 0 0 .647 3.23 8.273 8.273 0 0 0 1.788 2.638 8.331 8.331 0 0 0 2.65 1.769 8.199 8.199 0 0 0 3.228.638 8.248 8.248 0 0 0 3.248-.638Zm-7.763-6.476a1.52 1.52 0 0 1-.454-1.102 1.566 1.566 0 0 1 .454-1.14 1.497 1.497 0 0 1 1.112-.465 1.583 1.583 0 0 1 1.15.464 1.536 1.536 0 0 1 .474 1.14 1.491 1.491 0 0 1-.474 1.103 1.582 1.582 0 0 1-1.15.464 1.494 1.494 0 0 1-1.112-.464Zm7.859-3.383c.013-.04.039-.04.078 0l.463 1.256a.151.151 0 0 0 .155.117l1.372.038c.026 0 .039.01.039.03a.106.106 0 0 1-.039.067l-.986.85a.148.148 0 0 0-.106.134c0 .02.002.04.01.06l.348 1.256c0 .065-.02.097-.058.097l-1.14-.754a.347.347 0 0 0-.233 0l-1.082.754c-.052 0-.071-.032-.058-.097l.348-1.256a.208.208 0 0 0-.097-.194l-1.024-.85a.15.15 0 0 1-.02-.068c0-.02.007-.03.02-.03l1.372-.037a.164.164 0 0 0 .174-.117l.464-1.256Z"/></svg>
